ui/StatusQ/src/assets/img/icons/tiny/help.svg

<svg fill="none" height="16" viewBox="0 0 16 16" width="16" xmlns="http://www.w3.org/2000/svg"><g fill="#939ba1"><path d="m5.50016 6c0-1.38281 1.11719-2.5 2.5-2.5s2.50004 1.11719 2.50004 2.5c0 .49907-.2598.91811-.53676 1.22837-.28235.31636-.63484.57886-.93655.77353-.33152.21391-.52673.54175-.52673.86284v.4686c0 .27614-.22385.5-.5.5-.27614 0-.5-.22386-.5-.5v-.4686c0-.73095.43209-1.34664.98457-1.70311.26475-.17082.53444-.37706.73265-.59913.20365-.22818.28278-.41727.28278-.5625 0-.83052-.66947-1.5-1.5-1.5-.83052 0-1.5.66948-1.5 1.5 0 .27614-.22385.5-.5.5-.27614 0-.5-.22386-.5-.5z"/><path d="m8.00016 12.5c.46024 0 .83334-.3731.83334-.8333 0-.4603-.3731-.8334-.83334-.8334-.46023 0-.83333.3731-.83333.8334 0 .4602.3731.8333.83333.8333z"/><path clip-rule="evenodd" d="m1.3335 8c0 3.6819 2.98476 6.6667 6.66666 6.6667 3.68194 0 6.66664-2.9848 6.66664-6.6667s-2.9847-6.66666-6.66664-6.66666c-3.6819 0-6.66666 2.98476-6.66666 6.66666zm1 0c0 3.1296 2.53705 5.6667 5.66666 5.6667 3.12964 0 5.66664-2.5371 5.66664-5.6667 0-3.12961-2.537-5.66666-5.66664-5.66666-3.12961 0-5.66666 2.53705-5.66666 5.66666z" fill-rule="evenodd"/></g></svg>

<svg width="16" height="16" viewBox="0 0 16 16" fill="none" xmlns="http://www.w3.org/2000/svg">
<path d="M5.50016 6C5.50016 4.61719 6.61735 3.5 8.00016 3.5C9.38297 3.5 10.5002 4.61719 10.5002 6C10.5002 6.49907 10.2404 6.91811 9.96344 7.22837C9.68109 7.54473 9.3286 7.80723 9.02689 8.0019C8.69537 8.21581 8.50016 8.54365 8.50016 8.86474V9.33334C8.50016 9.60948 8.27631 9.83334 8.00016 9.83334C7.72402 9.83334 7.50016 9.60948 7.50016 9.33334V8.86474C7.50016 8.13379 7.93225 7.5181 8.48473 7.16163C8.74948 6.99081 9.01917 6.78457 9.21738 6.5625C9.42103 6.33432 9.50016 6.14523 9.50016 6C9.50016 5.16948 8.83069 4.5 8.00016 4.5C7.16964 4.5 6.50016 5.16948 6.50016 6C6.50016 6.27614 6.27631 6.5 6.00016 6.5C5.72402 6.5 5.50016 6.27614 5.50016 6Z" fill="#939BA1"/>
<path d="M8.00016 12.5C8.4604 12.5 8.8335 12.1269 8.8335 11.6667C8.8335 11.2064 8.4604 10.8333 8.00016 10.8333C7.53993 10.8333 7.16683 11.2064 7.16683 11.6667C7.16683 12.1269 7.53993 12.5 8.00016 12.5Z" fill="#939BA1"/>
<path fill-rule="evenodd" clip-rule="evenodd" d="M1.3335 8C1.3335 11.6819 4.31826 14.6667 8.00016 14.6667C11.6821 14.6667 14.6668 11.6819 14.6668 8C14.6668 4.3181 11.6821 1.33334 8.00016 1.33334C4.31826 1.33334 1.3335 4.3181 1.3335 8ZM2.3335 8C2.3335 11.1296 4.87055 13.6667 8.00016 13.6667C11.1298 13.6667 13.6668 11.1296 13.6668 8C13.6668 4.87039 11.1298 2.33334 8.00016 2.33334C4.87055 2.33334 2.3335 4.87039 2.3335 8Z" fill="#939BA1"/>
</svg>
